X:1
T:Title
%%score { 1 | 2 }
L:1/8
Q:1/4=100
M:4/4
K:Ab
V:1 treble nm="Grand Piano"
V:2 bass 
V:1
 A2 E2 [ce][Bd][Ac][FB] | [Ec]3 [=DB] [EB]2 z2 | [EB]2 [=Ec]2 [Fc][Fc][A=d][Ad] | [Ge]6 z2 | %4
w: J.~J.~Jelley * * * * *||||
 A2 E2 [ce][FBd][EAc][DGB] | [CFA]3 [B,=EG] [A,F]2 z2 | [A,EA][_Ge][Fd][FB] [Ec]2 [DB]2 | %7
w: |||
 [A,CA]6 z2 | A2 E2 dcdc | B4 B2 z2 | B2 B2 [=DB][DB][Ac][A=d] | [Ge]6 z2 | %12
w: |||||
 A2 E2 [ce][FBd][EAc][DGB] | [CFA]3 [B,FG] [A,F]2 z2 | [A,EA][_Ge][Fd][FB] [Ec]2 [DB]2 | %15
w: |||
 [CA]6 z2 |] %16
w: |
V:2
 A,2 E,2 [A,,A,][B,,G,][C,A,][D,A,] | [E,A,]3 [F,A,] [E,G,]2 z2 | %2
 [E,G,]2 [C,G,]2 [F,A,][F,A,][B,,B,][B,,B,] | [E,B,]6 z2 | A,2 E,2 [C,A,]D,E,=E, | F,3 C, D,2 z2 | %6
 C,[C,A,][D,A,][=D,A,] [E,A,]2 [E,G,]2 | A,,6 z2 | A,2 E,2 [E,B,E][E,=A,E][E,B,E][E,_A,E] | %9
 [E,G,E]4 [E,G,E]2 z2 | [F,A,=D]2 [F,A,D]2 [B,,A,][B,,A,][B,,F,][B,,B,] | [E,B,]6 z2 | %12
 A,2 E,2 [C,A,]D,E,=E, | F,3 C, D,2 z2 | C,[C,A,][D,A,][=D,A,] [E,A,]2 [E,G,]2 | [A,,A,]6 z2 |] %16

